_includes/icons/color-journal.svg

<svg fill="#666" height="50" viewBox="0 0 48 48" width="50" xmlns="http://www.w3.org/2000/svg"><path d="m36 43h-23.5v-38h23.5c2.2 0 4 1.8 4 4v30c0 2.2-1.8 4-4 4z" fill="#795548"/><path d="m13 16h27v16h-27z" fill="#bcaaa4"/><path d="m12 5h1v38h-1c-2.2 0-4-1.8-4-4v-30c0-2.2 1.8-4 4-4z" fill="#4e342e"/><path d="m40 28h-11c-1.105 0-2-.895-2-2v-4c0-1.105.895-2 2-2h11z" fill="#795548"/><path d="m32 5h2v38h-2z" fill="#4e342e"/></svg>

<svg xmlns="http://www.w3.org/2000/svg" viewBox="0 0 48 48" width="50" height="50" fill="#666"><path d="M36,43H12.5V5H36c2.2,0,4,1.8,4,4v30C40,41.2,38.2,43,36,43z" fill="#795548"/><path fill="#bcaaa4" d="M13 16H40V32H13z"/><path d="M12,5h1v38h-1c-2.2,0-4-1.8-4-4V9C8,6.8,9.8,5,12,5z" fill="#4e342e"/><path d="M40,28H29c-1.105,0-2-0.895-2-2v-4c0-1.105,0.895-2,2-2h11V28z" fill="#795548"/><path fill="#4e342e" d="M32 5H34V43H32z"/></svg>
